X:167
T:What care I how fair she be?
M:C
L:1/8
K:F
%%score 1 2
V:1 clef-treble
V:2 clef-bass octave=-1
V:1
c3d c2G2&C8|(AG)(FE)D4&C4D4|[CF]3F [FB]2[Fd]2|[EB]2[FA]2[EG]4|
w:Shall I, wast-ing in* des-*pair, Die be-cause a wo-man's fair?
V:2
[FA]4[EG]4|F4[B,F]4&F2A,2x4|[A,F]4[DF]2[B,B]2|[GB]2[Fc]2c4|
V:1
[DG]3G [^CEA]2[DF]2|[DG]2[DGB]2[^CEA]3B|([Ac]B)(AG) [=B,F]2[CE]2&=C4x4|[=BD]3C C4|
w:Or my cheeks make pale with care, Be-cause* an-*o-ther's ro-sy are?
V:2
B4A2D2|B2G2A4|F3E D2C2|G2G,2C4|
V:1
!f![CEG]2(EF) G2C2|[CF]2[B,EG]2[A,FA]4|[A,F]3[CEG] [CF(A]B)[CFc]2|[B,E]2[A,CF]2[CEG]4|
w:Be she* fair-er than the day, Or the flow'-*ry meads in May;
V:2
C6C_B,|A,2G,2F,4|D3C F2A2|G2F2 C4|
V:1
!ff![DG]2(GA) [D(B]G)(Bc)|[DGd]2cB [FA]4|!pp![DFA]2F2 [CFc]3A|[CEG]3F [A,F]4||
w:If she* be* not* so to* me, What care I how fair she be.
V:2
B,4 G,2G,A,|B,2A,G, D4|D4 A,4|C2C,2 F,4||

